packages/foundations/assets/icons/functional/images/communication/speech_bubble_question_mark_12.svg

<svg width="12" height="12" viewBox="0 0 12 12" fill="none" xmlns="http://www.w3.org/2000/svg">
<g clip-path="url(#clip0_231_152)">
<path fill-rule="evenodd" clip-rule="evenodd" d="M9.24704 1.20001C10.1529 1.20001 10.8 1.87931 10.8 2.69917V7.50113C10.8 8.32099 10.1294 9.00029 9.29414 9.00029H4.10593C3.92944 9.00029 3.7765 9.04712 3.67061 9.16424L2.22358 10.6282C1.84712 11.003 1.20001 10.722 1.20001 10.1949V2.69917C1.20001 1.87931 1.88241 1.20001 2.71769 1.20001H9.24704ZM9.60001 2.40001H2.40001V8.76001L2.83598 8.34931C3.15419 8.04422 3.56663 7.8235 4.0026 7.80001H9.60001V2.40001ZM6.00004 6.30001C6.29853 6.30001 6.52501 6.52873 6.52501 6.81979C6.52501 7.1109 6.29853 7.35001 6.00004 7.35001C5.70149 7.35001 5.47501 7.1109 5.47501 6.81979C5.47501 6.52873 5.70149 6.30001 6.00004 6.30001ZM6.11661 3.00001C6.77741 3.00001 7.28953 3.35505 7.28953 4.00176C7.28953 4.49992 7.04097 4.7727 6.81726 4.97015C6.59355 5.1676 6.46559 5.26043 6.46783 5.38571V5.85923H5.53902V5.38571C5.53902 5.0114 5.72495 4.82381 5.92067 4.68126L6.17196 4.50546C6.28504 4.41847 6.36768 4.32352 6.36768 4.17863C6.36768 4.04717 6.29969 3.92882 6.03943 3.92882C5.81613 3.92882 5.55778 4.01595 5.35735 4.12701L5.04001 3.30339C5.23821 3.14314 5.69778 3.00001 6.11661 3.00001Z" fill="#1A1C1F"/>
</g>
<defs>
<clipPath id="clip0_231_152">
<rect width="12" height="12" fill="white"/>
</clipPath>
</defs>
</svg>

<svg xmlns="http://www.w3.org/2000/svg" width="12" height="12" fill="none"><g clip-path="url(#a)"><path fill="#1A1C1F" fill-rule="evenodd" d="M9.247 1.2c.906 0 1.553.68 1.553 1.5V7.5c0 .82-.67 1.5-1.506 1.5H4.106c-.177 0-.33.046-.435.163l-1.447 1.464c-.377.375-1.024.094-1.024-.433V2.699c0-.82.682-1.499 1.518-1.499zM9.6 2.4H2.4v6.36l.436-.41c.318-.306.73-.526 1.167-.55H9.6zM6 6.3c.299 0 .525.229.525.52 0 .29-.226.53-.525.53a.523.523 0 0 1-.525-.53c0-.291.226-.52.525-.52M6.117 3c.66 0 1.173.355 1.173 1.002 0 .498-.249.77-.473.968s-.351.29-.35.416v.473H5.54v-.473c0-.375.186-.562.382-.705l.251-.176c.113-.087.196-.181.196-.326 0-.132-.068-.25-.329-.25-.223 0-.481.087-.682.198l-.317-.824C5.238 3.143 5.698 3 6.117 3" clip-rule="evenodd"/></g><defs><clipPath id="a"><path fill="#fff" d="M0 0h12v12H0z"/></clipPath></defs></svg>
